SVG_Azure_Grouped/Compute/Container Registry.svg

<?xml version="1.0" encoding="UTF-8" standalone="no"?>
<!-- Generated by Microsoft Visio, SVG Export Container Registry.svg Page-1 -->

<svg
   xmlns:dc="http://purl.org/dc/elements/1.1/"
   xmlns:cc="http://creativecommons.org/ns#"
   xmlns:rdf="http://www.w3.org/1999/02/22-rdf-syntax-ns#"
   xmlns:svg="http://www.w3.org/2000/svg"
   xmlns="http://www.w3.org/2000/svg"
   xmlns:sodipodi="http://sodipodi.sourceforge.net/DTD/sodipodi-0.dtd"
   xmlns:inkscape="http://www.inkscape.org/namespaces/inkscape"
   width="0.7874189in"
   height="0.66948521in"
   viewBox="0 0 56.694178 48.202987"
   xml:space="preserve"
   class="st9"
   version="1.1"
   id="svg122"
   sodipodi:docname="Container Registry.svg"
   style="font-size:12px;overflow:visible;color-interpolation-filters:sRGB;fill:none;fill-rule:evenodd;stroke-linecap:square;stroke-miterlimit:3"
   inkscape:version="0.92.5 (2060ec1f9f, 2020-04-08)"><metadata
   id="metadata126"><rdf:RDF><cc:Work
       rdf:about=""><dc:format>image/svg+xml</dc:format><dc:type
         rdf:resource="http://purl.org/dc/dcmitype/StillImage" /></cc:Work></rdf:RDF></metadata><sodipodi:namedview
   pagecolor="#ffffff"
   bordercolor="#666666"
   borderopacity="1"
   objecttolerance="10"
   gridtolerance="10"
   guidetolerance="10"
   inkscape:pageopacity="0"
   inkscape:pageshadow="2"
   inkscape:window-width="640"
   inkscape:window-height="480"
   id="namedview124"
   showgrid="false"
   inkscape:zoom="1.5573463"
   inkscape:cx="37.79507"
   inkscape:cy="30.422412"
   inkscape:window-x="0"
   inkscape:window-y="0"
   inkscape:window-maximized="0"
   inkscape:current-layer="svg122" />
	<style
   type="text/css"
   id="style2">
	<![CDATA[
		.st1 {fill:url(#grad0-5)}
		.st2 {stroke:none;stroke-linecap:butt;stroke-width:31.4382}
		.st3 {fill:#767676;stroke:none;stroke-linecap:butt;stroke-width:31.4382}
		.st4 {fill:#999999}
		.st5 {fill:#a3a3a3;stroke:none;stroke-linecap:butt;stroke-width:31.4382}
		.st6 {fill:#b3b3b3;stroke:none;stroke-linecap:butt;stroke-width:31.4382}
		.st7 {fill:url(#grad0-27);stroke:none;stroke-linecap:butt;stroke-width:31.4382}
		.st8 {fill:#999999;stroke:none;stroke-linecap:butt;stroke-width:31.4382}
		.st9 {fill:none;fill-rule:evenodd;font-size:12px;overflow:visible;stroke-linecap:square;stroke-miterlimit:3}
	]]>
	</style>

	<defs
   id="Patterns_And_Gradients">
		<linearGradient
   id="grad0-5"
   x1="0"
   y1="88.228628"
   x2="46.264404"
   y2="88.228628"
   gradientTransform="scale(1.1831991,0.84516632)"
   gradientUnits="userSpaceOnUse">
			<stop
   offset="0"
   stop-color="#0078d4"
   stop-opacity="1"
   id="stop4" />
			<stop
   offset="0.16"
   stop-color="#1380da"
   stop-opacity="1"
   id="stop6" />
			<stop
   offset="0.53"
   stop-color="#3c91e5"
   stop-opacity="1"
   id="stop8" />
			<stop
   offset="0.82"
   stop-color="#559cec"
   stop-opacity="1"
   id="stop10" />
			<stop
   offset="1"
   stop-color="#5ea0ef"
   stop-opacity="1"
   id="stop12" />
		</linearGradient>
		<linearGradient
   id="grad0-27"
   x1="0"
   y1="215.15399"
   x2="15.613232"
   y2="215.15399"
   gradientTransform="scale(2.0303292,0.49253096)"
   gradientUnits="userSpaceOnUse">
			<stop
   offset="0"
   stop-color="#333132"
   stop-opacity="1"
   id="stop15" />
			<stop
   offset="1"
   stop-color="#5b5a5c"
   stop-opacity="1"
   id="stop17" />
		</linearGradient>
	</defs>
	<g
   id="g120"
   transform="translate(-31.4382,-31.441335)">
		<title
   id="title21">Page-1</title>
		<g
   id="group11478-1"
   transform="translate(31.4382,-34.0157)">
			<title
   id="title23">Container Registry.11478</title>
			<g
   id="shape11479-2"
   transform="translate(0,-9.11083)">
				<title
   id="title25">path22</title>
				<path
   d="M 51.12,93.05 A 13.2042,13.3012 -180 0 0 44.12,89.5 15.4732,15.5868 -180 0 0 28.05,74.58 15.9774,16.0947 -180 0 0 12.79,85.02 14.5593,14.6662 -180 0 0 0,99.24 14.9059,15.0154 -180 0 0 15.41,113.66 h 1.36 24.95 0.67 a 12.6054,12.698 -180 0 0 12.35,-12.1 11.5655,11.6504 -180 0 0 -3.59,-8.35 z"
   class="st1"
   id="path27"
   inkscape:connector-curvature="0"
   style="fill:url(#grad0-5)" />
				<path
   d="M 51.12,93.05 A 13.2042,13.3012 -180 0 0 44.12,89.5 15.4732,15.5868 -180 0 0 28.05,74.58 15.9774,16.0947 -180 0 0 12.79,85.02 14.5593,14.6662 -180 0 0 0,99.24 14.9059,15.0154 -180 0 0 15.41,113.66 h 1.36 24.95 0.67 a 12.6054,12.698 -180 0 0 12.35,-12.1 11.5655,11.6504 -180 0 0 -3.59,-8.35"
   class="st2"
   id="path29"
   inkscape:connector-curvature="0"
   style="stroke:none;stroke-width:31.4382;stroke-linecap:butt" />
			</g>
			<g
   id="shape11480-7"
   transform="translate(31.7342,-14.6662)">
				<title
   id="title32">polygon24</title>
				<path
   d="M 24.96,104.2 0,94.74 l 0.03,13.58 24.93,5.34 z"
   class="st3"
   id="path34"
   inkscape:connector-curvature="0"
   style="fill:#767676;stroke:none;stroke-width:31.4382;stroke-linecap:butt" />
			</g>
			<g
   id="shape11481-9"
   transform="translate(24.9903,-16.8249)">
				<title
   id="title37">polyline26</title>
				<path
   d="M 6.74,96.89 0,101.02 v 12.64 l 6.78,-3.18 z"
   class="st4"
   id="path39"
   inkscape:connector-curvature="0"
   style="fill:#999999" />
				<path
   d="M 6.74,96.89 0,101.02 v 12.64 l 6.78,-3.18"
   class="st2"
   id="path41"
   inkscape:connector-curvature="0"
   style="stroke:none;stroke-width:31.4382;stroke-linecap:butt" />
			</g>
			<g
   id="shape11482-12"
   transform="translate(43.1106,-19.174)">
				<title
   id="title44">polygon28</title>
				<path
   d="m 0,105.46 v 7.56 l 2.27,0.64 v -7.4 z"
   class="st5"
   id="path46"
   inkscape:connector-curvature="0"
   style="fill:#a3a3a3;stroke:none;stroke-width:31.4382;stroke-linecap:butt" />
			</g>
			<g
   id="shape11483-14"
   transform="translate(38.5726,-20.3803)">
				<title
   id="title49">polygon30</title>
				<path
   d="m 2.27,113.66 v -7.72 L 0,105.12 v 7.9 z"
   class="st5"
   id="path51"
   inkscape:connector-curvature="0"
   style="fill:#a3a3a3;stroke:none;stroke-width:31.4382;stroke-linecap:butt" />
			</g>
			<g
   id="shape11484-16"
   transform="translate(47.6485,-17.9677)">
				<title
   id="title54">polygon32</title>
				<path
   d="m 0,105.85 v 7.2 l 2.21,0.61 0.06,-7.05 z"
   class="st5"
   id="path56"
   inkscape:connector-curvature="0"
   style="fill:#a3a3a3;stroke:none;stroke-width:31.4382;stroke-linecap:butt" />
			</g>
			<g
   id="shape11485-18"
   transform="translate(34.0662,-21.6184)">
				<title
   id="title59">polygon34</title>
				<path
   d="m 0,104.86 v 8.22 l 2.27,0.58 v -8.04 z"
   class="st5"
   id="path61"
   inkscape:connector-curvature="0"
   style="fill:#a3a3a3;stroke:none;stroke-width:31.4382;stroke-linecap:butt" />
			</g>
			<g
   id="shape11486-20"
   transform="translate(52.155,-16.7296)">
				<title
   id="title64">polygon36</title>
				<path
   d="m 2.27,113.66 v -6.73 L 0,106.13 v 6.89 z"
   class="st5"
   id="path66"
   inkscape:connector-curvature="0"
   style="fill:#a3a3a3;stroke:none;stroke-width:31.4382;stroke-linecap:butt" />
			</g>
			<g
   id="shape11487-22"
   transform="translate(26.1563,-19.5549)">
				<title
   id="title69">a8719886-8ecb-4bb1-abaf-d5d3808</title>
				<path
   d="M 1.13,112.99 0,113.66 v -8.99 l 1.13,-0.6 z m 2.24,-10.22 -1.16,0.76 v 8.73 l 1.16,-0.64 z"
   class="st6"
   id="path71"
   inkscape:connector-curvature="0"
   style="fill:#b3b3b3;stroke:none;stroke-width:31.4382;stroke-linecap:butt" />
			</g>
			<g
   id="shape11488-24"
   transform="translate(24.9903,-12.3171)">
				<title
   id="title74">polygon39</title>
				<path
   d="m 6.78,105.97 24.92,5.34 -6.8,2.35 L 0,109.15 Z"
   class="st7"
   id="path76"
   inkscape:connector-curvature="0"
   style="fill:url(#grad0-27);stroke:none;stroke-width:31.4382;stroke-linecap:butt" />
			</g>
			<g
   id="shape11489-28"
   transform="translate(31.6396,-0.190469)">
				<title
   id="title79">polygon41</title>
				<path
   d="m 25.05,100.58 v 8.28 L 0,113.66 0.13,95.91 Z"
   class="st3"
   id="path81"
   inkscape:connector-curvature="0"
   style="fill:#767676;stroke:none;stroke-width:31.4382;stroke-linecap:butt" />
			</g>
			<g
   id="shape11490-30"
   transform="translate(34.0662,-3.11101)">
				<title
   id="title84">polygon43</title>
				<path
   d="M 2.27,113.27 0,113.66 v -11.27 l 2.27,0.28 z"
   class="st5"
   id="path86"
   inkscape:connector-curvature="0"
   style="fill:#a3a3a3;stroke:none;stroke-width:31.4382;stroke-linecap:butt" />
			</g>
			<g
   id="shape11491-32"
   transform="translate(38.5726,-3.84115)">
				<title
   id="title89">polygon45</title>
				<path
   d="m 2.27,104.04 v 9.2 L 0,113.66 v -9.97 z"
   class="st5"
   id="path91"
   inkscape:connector-curvature="0"
   style="fill:#a3a3a3;stroke:none;stroke-width:31.4382;stroke-linecap:butt" />
			</g>
			<g
   id="shape11492-34"
   transform="translate(43.1106,-4.60303)">
				<title
   id="title94">polygon47</title>
				<path
   d="M 2.27,113.24 0,113.66 v -8.64 l 2.27,0.29 z"
   class="st5"
   id="path96"
   inkscape:connector-curvature="0"
   style="fill:#a3a3a3;stroke:none;stroke-width:31.4382;stroke-linecap:butt" />
			</g>
			<g
   id="shape11493-36"
   transform="translate(47.6485,-5.39666)">
				<title
   id="title99">polygon49</title>
				<path
   d="m 2.24,106.73 v 6.51 L 0,113.66 v -7.27 z"
   class="st5"
   id="path101"
   inkscape:connector-curvature="0"
   style="fill:#a3a3a3;stroke:none;stroke-width:31.4382;stroke-linecap:butt" />
			</g>
			<g
   id="shape11494-38"
   transform="translate(52.155,-6.12679)">
				<title
   id="title104">polygon51</title>
				<path
   d="m 2.17,107.97 0.16,5.27 -2.33,0.42 v -5.97 z"
   class="st5"
   id="path106"
   inkscape:connector-curvature="0"
   style="fill:#a3a3a3;stroke:none;stroke-width:31.4382;stroke-linecap:butt" />
			</g>
			<g
   id="shape11495-40"
   transform="translate(24.9903)">
				<title
   id="title109">b8a4c988-6241-4bdc-bddf-c20634c</title>
				<path
   d="M 0,109.4 V 99.05 l 6.81,-3.17 v 17.78 z"
   class="st8"
   id="path111"
   inkscape:connector-curvature="0"
   style="fill:#999999;stroke:none;stroke-width:31.4382;stroke-linecap:butt" />
			</g>
			<g
   id="shape11496-42"
   transform="translate(26.1248,-2.98403)">
				<title
   id="title114">b623bcd9-1396-4807-80b7-64d0fc8</title>
				<path
   d="M 1.01,112.35 0,111.85 v -8.77 l 1.01,-0.47 z M 3.43,101.4 2.24,102 v 11.05 l 1.16,0.61 V 101.4 Z"
   class="st6"
   id="path116"
   inkscape:connector-curvature="0"
   style="fill:#b3b3b3;stroke:none;stroke-width:31.4382;stroke-linecap:butt" />
			</g>
		</g>
	</g>
</svg>

<?xml version="1.0" encoding="UTF-8" standalone="no"?>
<!DOCTYPE svg PUBLIC "-//W3C//DTD SVG 1.1//EN" "http://www.w3.org/Graphics/SVG/1.1/DTD/svg11.dtd">
<!-- Generated by Microsoft Visio, SVG Export Container Registry.svg Page-1 -->
<svg xmlns="http://www.w3.org/2000/svg" xmlns:xlink="http://www.w3.org/1999/xlink" xmlns:ev="http://www.w3.org/2001/xml-events"
		width="1.66068in" height="1.57854in" viewBox="0 0 119.569 113.655" xml:space="preserve" color-interpolation-filters="sRGB"
		class="st9">
	<style type="text/css">
	<![CDATA[
		.st1 {fill:url(#grad0-5)}
		.st2 {stroke:none;stroke-linecap:butt;stroke-width:31.4382}
		.st3 {fill:#767676;stroke:none;stroke-linecap:butt;stroke-width:31.4382}
		.st4 {fill:#999999}
		.st5 {fill:#a3a3a3;stroke:none;stroke-linecap:butt;stroke-width:31.4382}
		.st6 {fill:#b3b3b3;stroke:none;stroke-linecap:butt;stroke-width:31.4382}
		.st7 {fill:url(#grad0-27);stroke:none;stroke-linecap:butt;stroke-width:31.4382}
		.st8 {fill:#999999;stroke:none;stroke-linecap:butt;stroke-width:31.4382}
		.st9 {fill:none;fill-rule:evenodd;font-size:12px;overflow:visible;stroke-linecap:square;stroke-miterlimit:3}
	]]>
	</style>

	<defs id="Patterns_And_Gradients">
		<linearGradient id="grad0-5" x1="0" y1="0" x2="1" y2="0" gradientTransform="rotate(-90 0.5 0.5)">
			<stop offset="0" stop-color="#0078d4" stop-opacity="1"/>
			<stop offset="0.16" stop-color="#1380da" stop-opacity="1"/>
			<stop offset="0.53" stop-color="#3c91e5" stop-opacity="1"/>
			<stop offset="0.82" stop-color="#559cec" stop-opacity="1"/>
			<stop offset="1" stop-color="#5ea0ef" stop-opacity="1"/>
		</linearGradient>
		<linearGradient id="grad0-27" x1="0" y1="0" x2="1" y2="0" gradientTransform="rotate(90 0.5 0.5)">
			<stop offset="0" stop-color="#333132" stop-opacity="1"/>
			<stop offset="1" stop-color="#5b5a5c" stop-opacity="1"/>
		</linearGradient>
	</defs>
	<g>
		<title>Page-1</title>
		<g id="group11199-1" transform="translate(31.4382,-34.0157)">
			<title>Container Registry.11199</title>
			<g id="shape11200-2" transform="translate(0,-9.11083)">
				<title>path22</title>
				<path d="M51.12 93.05 A13.2042 13.3012 -180 0 0 44.12 89.5 A15.4732 15.5868 -180 0 0 28.05 74.58 A15.9774 16.0947
							 -180 0 0 12.79 85.02 A14.5593 14.6662 -180 0 0 0 99.24 A14.9059 15.0154 -180 0 0 15.41 113.66 L16.77
							 113.66 L41.72 113.66 L42.39 113.66 A12.6054 12.698 -180 0 0 54.74 101.56 A11.5655 11.6504 -180 0 0 51.15
							 93.21 L51.12 93.05 Z" class="st1"/>
				<path d="M51.12 93.05 A13.2042 13.3012 -180 0 0 44.12 89.5 A15.4732 15.5868 -180 0 0 28.05 74.58 A15.9774 16.0947
							 -180 0 0 12.79 85.02 A14.5593 14.6662 -180 0 0 0 99.24 A14.9059 15.0154 -180 0 0 15.41 113.66 L16.77
							 113.66 L41.72 113.66 L42.39 113.66 A12.6054 12.698 -180 0 0 54.74 101.56 A11.5655 11.6504 -180 0 0 51.15
							 93.21" class="st2"/>
			</g>
			<g id="shape11201-7" transform="translate(31.7342,-14.6662)">
				<title>polygon24</title>
				<path d="M24.96 104.2 L0 94.74 L0.03 108.32 L24.96 113.66 L24.96 104.2 Z" class="st3"/>
			</g>
			<g id="shape11202-9" transform="translate(24.9903,-16.8249)">
				<title>polyline26</title>
				<path d="M6.74 96.89 L0 101.02 L0 113.66 L6.78 110.48 L6.74 96.89 Z" class="st4"/>
				<path d="M6.74 96.89 L0 101.02 L0 113.66 L6.78 110.48" class="st2"/>
			</g>
			<g id="shape11203-12" transform="translate(43.1106,-19.174)">
				<title>polygon28</title>
				<path d="M0 105.46 L0 113.02 L2.27 113.66 L2.27 106.26 L0 105.46 Z" class="st5"/>
			</g>
			<g id="shape11204-14" transform="translate(38.5726,-20.3803)">
				<title>polygon30</title>
				<path d="M2.27 113.66 L2.27 105.94 L0 105.12 L0 113.02 L2.27 113.66 Z" class="st5"/>
			</g>
			<g id="shape11205-16" transform="translate(47.6485,-17.9677)">
				<title>polygon32</title>
				<path d="M0 105.85 L0 113.05 L2.21 113.66 L2.27 106.61 L0 105.85 Z" class="st5"/>
			</g>
			<g id="shape11206-18" transform="translate(34.0662,-21.6184)">
				<title>polygon34</title>
				<path d="M0 104.86 L0 113.08 L2.27 113.66 L2.27 105.62 L0 104.86 Z" class="st5"/>
			</g>
			<g id="shape11207-20" transform="translate(52.155,-16.7296)">
				<title>polygon36</title>
				<path d="M2.27 113.66 L2.27 106.93 L0 106.13 L0 113.02 L2.27 113.66 Z" class="st5"/>
			</g>
			<g id="shape11208-22" transform="translate(26.1563,-19.5549)">
				<title>a8719886-8ecb-4bb1-abaf-d5d3808</title>
				<path d="M1.13 112.99 L0 113.66 L0 104.67 L1.13 104.07 L1.13 112.99 ZM3.37 102.77 L2.21 103.53 L2.21 112.26 L3.37
							 111.62 L3.37 102.77 Z" class="st6"/>
			</g>
			<g id="shape11209-24" transform="translate(24.9903,-12.3171)">
				<title>polygon39</title>
				<path d="M6.78 105.97 L31.7 111.31 L24.9 113.66 L0 109.15 L6.78 105.97 Z" class="st7"/>
			</g>
			<g id="shape11210-28" transform="translate(31.6396,-0.190469)">
				<title>polygon41</title>
				<path d="M25.05 100.58 L25.05 108.86 L0 113.66 L0.13 95.91 L25.05 100.58 Z" class="st3"/>
			</g>
			<g id="shape11211-30" transform="translate(34.0662,-3.11101)">
				<title>polygon43</title>
				<path d="M2.27 113.27 L0 113.66 L0 102.39 L2.27 102.67 L2.27 113.27 Z" class="st5"/>
			</g>
			<g id="shape11212-32" transform="translate(38.5726,-3.84115)">
				<title>polygon45</title>
				<path d="M2.27 104.04 L2.27 113.24 L0 113.66 L0 103.69 L2.27 104.04 Z" class="st5"/>
			</g>
			<g id="shape11213-34" transform="translate(43.1106,-4.60303)">
				<title>polygon47</title>
				<path d="M2.27 113.24 L0 113.66 L0 105.02 L2.27 105.31 L2.27 113.24 Z" class="st5"/>
			</g>
			<g id="shape11214-36" transform="translate(47.6485,-5.39666)">
				<title>polygon49</title>
				<path d="M2.24 106.73 L2.24 113.24 L0 113.66 L0 106.39 L2.24 106.73 Z" class="st5"/>
			</g>
			<g id="shape11215-38" transform="translate(52.155,-6.12679)">
				<title>polygon51</title>
				<path d="M2.17 107.97 L2.33 113.24 L0 113.66 L0 107.69 L2.17 107.97 Z" class="st5"/>
			</g>
			<g id="shape11216-40" transform="translate(24.9903,2.41585E-13)">
				<title>b8a4c988-6241-4bdc-bddf-c20634c</title>
				<path d="M0 109.4 L0 99.05 L6.81 95.88 L6.81 113.66 L0 109.4 Z" class="st8"/>
			</g>
			<g id="shape11217-42" transform="translate(26.1248,-2.98403)">
				<title>b623bcd9-1396-4807-80b7-64d0fc8</title>
				<path d="M1.01 112.35 L0 111.85 L0 103.08 L1.01 102.61 L1.01 112.35 ZM3.43 101.4 L2.24 102 L2.24 113.05 L3.4 113.66
							 L3.4 101.4 L3.43 101.4 Z" class="st6"/>
			</g>
		</g>
	</g>
</svg>
